static/img/kroki/8d96f4bac3afda71c15e6de1bc5b9d50.svg

<?xml version="1.0" encoding="us-ascii" standalone="no"?><svg xmlns="http://www.w3.org/2000/svg" xmlns:xlink="http://www.w3.org/1999/xlink" contentStyleType="text/css" height="374px" preserveAspectRatio="none" style="width:369px;height:374px;" version="1.1" viewBox="0 0 369 374" width="369px" zoomAndPan="magnify"><defs/><g><!--class bucket--><g id="elem_bucket"><rect codeLine="23" fill="#3D176E" height="39.7891" id="bucket" rx="2.5" ry="2.5" style="stroke:#000D19;stroke-width:0.5;" width="98" x="7" y="167.79"/><ellipse cx="22" cy="187.6845" fill="#ADD1B2" rx="11" ry="11" style="stroke:#181818;stroke-width:1.0;"/><path d="M24.9688,193.3252 Q24.3906,193.622 23.75,193.7627 Q23.1094,193.9189 22.4063,193.9189 Q19.9063,193.9189 18.5781,192.2783 Q17.2656,190.622 17.2656,187.497 Q17.2656,184.372 18.5781,182.7158 Q19.9063,181.0595 22.4063,181.0595 Q23.1094,181.0595 23.75,181.2158 Q24.4063,181.372 24.9688,181.6689 L24.9688,184.3877 Q24.3438,183.8095 23.75,183.5439 Q23.1563,183.2627 22.5313,183.2627 Q21.1875,183.2627 20.5,184.3408 Q19.8125,185.4033 19.8125,187.497 Q19.8125,189.5908 20.5,190.6689 Q21.1875,191.7314 22.5313,191.7314 Q23.1563,191.7314 23.75,191.4658 Q24.3438,191.1845 24.9688,190.6064 L24.9688,193.3252 Z " fill="#000000"/><text fill="#D9B8FF" font-family="Helvetica" font-size="17" lengthAdjust="spacing" textLength="56" x="41" y="193.5698">bucket</text></g><!--class digitalocean_resource--><g id="elem_digitalocean_resource"><rect codeLine="26" fill="#3D176E" height="39.7891" id="digitalocean_resource" rx="2.5" ry="2.5" style="stroke:#000D19;stroke-width:0.5;" width="223" x="139.5" y="167.79"/><ellipse cx="154.5" cy="187.6845" fill="#ADD1B2" rx="11" ry="11" style="stroke:#181818;stroke-width:1.0;"/><path d="M157.4688,193.3252 Q156.8906,193.622 156.25,193.7627 Q155.6094,193.9189 154.9063,193.9189 Q152.4063,193.9189 151.0781,192.2783 Q149.7656,190.622 149.7656,187.497 Q149.7656,184.372 151.0781,182.7158 Q152.4063,181.0595 154.9063,181.0595 Q155.6094,181.0595 156.25,181.2158 Q156.9063,181.372 157.4688,181.6689 L157.4688,184.3877 Q156.8438,183.8095 156.25,183.5439 Q155.6563,183.2627 155.0313,183.2627 Q153.6875,183.2627 153,184.3408 Q152.3125,185.4033 152.3125,187.497 Q152.3125,189.5908 153,190.6689 Q153.6875,191.7314 155.0313,191.7314 Q155.6563,191.7314 156.25,191.4658 Q156.8438,191.1845 157.4688,190.6064 L157.4688,193.3252 Z " fill="#000000"/><text fill="#D9B8FF" font-family="Helvetica" font-size="17" lengthAdjust="spacing" textLength="181" x="173.5" y="193.5698">digitalocean_resource</text></g><!--class digitalocean_space--><g id="elem_digitalocean_space"><rect codeLine="29" fill="#3D176E" height="39.7891" id="digitalocean_space" rx="2.5" ry="2.5" style="stroke:#000D19;stroke-width:0.5;" width="198" x="54" y="328.58"/><ellipse cx="69" cy="348.4745" fill="#ADD1B2" rx="11" ry="11" style="stroke:#181818;stroke-width:1.0;"/><path d="M71.9688,354.1152 Q71.3906,354.412 70.75,354.5527 Q70.1094,354.7089 69.4063,354.7089 Q66.9063,354.7089 65.5781,353.0683 Q64.2656,351.412 64.2656,348.287 Q64.2656,345.162 65.5781,343.5058 Q66.9063,341.8495 69.4063,341.8495 Q70.1094,341.8495 70.75,342.0058 Q71.4063,342.162 71.9688,342.4589 L71.9688,345.1777 Q71.3438,344.5995 70.75,344.3339 Q70.1563,344.0527 69.5313,344.0527 Q68.1875,344.0527 67.5,345.1308 Q66.8125,346.1933 66.8125,348.287 Q66.8125,350.3808 67.5,351.4589 Q68.1875,352.5214 69.5313,352.5214 Q70.1563,352.5214 70.75,352.2558 Q71.3438,351.9745 71.9688,351.3964 L71.9688,354.1152 Z " fill="#000000"/><text fill="#D9B8FF" font-family="Helvetica" font-size="17" lengthAdjust="spacing" textLength="156" x="88" y="354.3598">digitalocean_space</text></g><!--class resource--><g id="elem_resource"><rect codeLine="32" fill="#3D176E" height="39.7891" id="resource" rx="2.5" ry="2.5" style="stroke:#000D19;stroke-width:0.5;" width="113" x="96.5" y="7"/><ellipse cx="111.5" cy="26.8945" fill="#ADD1B2" rx="11" ry="11" style="stroke:#181818;stroke-width:1.0;"/><path d="M114.4688,32.5352 Q113.8906,32.832 113.25,32.9727 Q112.6094,33.1289 111.9063,33.1289 Q109.4063,33.1289 108.0781,31.4883 Q106.7656,29.832 106.7656,26.707 Q106.7656,23.582 108.0781,21.9258 Q109.4063,20.2695 111.9063,20.2695 Q112.6094,20.2695 113.25,20.4258 Q113.9063,20.582 114.4688,20.8789 L114.4688,23.5977 Q113.8438,23.0195 113.25,22.7539 Q112.6563,22.4727 112.0313,22.4727 Q110.6875,22.4727 110,23.5508 Q109.3125,24.6133 109.3125,26.707 Q109.3125,28.8008 110,29.8789 Q110.6875,30.9414 112.0313,30.9414 Q112.6563,30.9414 113.25,30.6758 Q113.8438,30.3945 114.4688,29.8164 L114.4688,32.5352 Z " fill="#000000"/><text fill="#D9B8FF" font-family="Helvetica" font-size="17" lengthAdjust="spacing" textLength="71" x="130.5" y="32.7798">resource</text></g><!--reverse link resource to bucket--><g id="link_resource_bucket"><path codeLine="35" d="M131.918,62.4116 C113.278,92.9316 86.41,136.9 67.74,167.46 " fill="none" id="resource-backto-bucket" style="stroke:#FFAF37;stroke-width:2.0;"/><polygon fill="none" points="141.3,47.05,126.7975,59.2842,137.0385,65.5389,141.3,47.05" style="stroke:#FFAF37;stroke-width:2.0;"/></g><!--reverse link resource to digitalocean_resource--><g id="link_resource_digitalocean_resource"><path codeLine="36" d="M174.275,62.3667 C193.115,92.8867 220.27,136.9 239.14,167.46 " fill="none" id="resource-backto-digitalocean_resource" style="stroke:#FFAF37;stroke-width:2.0;"/><polygon fill="none" points="164.82,47.05,169.1694,65.5184,179.3806,59.2151,164.82,47.05" style="stroke:#FFAF37;stroke-width:2.0;"/></g><!--reverse link bucket to digitalocean_space--><g id="link_bucket_digitalocean_space"><path codeLine="37" d="M77.082,223.2016 C95.722,253.7216 122.59,297.69 141.26,328.25 " fill="none" id="bucket-backto-digitalocean_space" style="stroke:#FFAF37;stroke-width:2.0;"/><polygon fill="none" points="67.7,207.84,71.9615,226.3289,82.2025,220.0742,67.7,207.84" style="stroke:#FFAF37;stroke-width:2.0;"/></g><!--reverse link digitalocean_resource to digitalocean_space--><g id="link_digitalocean_resource_digitalocean_space"><path codeLine="38" d="M229.725,223.1567 C210.885,253.6767 183.73,297.69 164.86,328.25 " fill="none" id="digitalocean_resource-backto-digitalocean_space" style="stroke:#FFAF37;stroke-width:2.0;"/><polygon fill="none" points="239.18,207.84,224.6194,220.0051,234.8306,226.3084,239.18,207.84" style="stroke:#FFAF37;stroke-width:2.0;"/></g><!--SRC=[XP9BRy8m48Jl-HMME2E5eZOWzGAHglQ2gj9xjR7NO2MnqNfJH1__lJnIPFA0esS-UsPNNXk50iiDxqI9PORa8vyRkm62Kio8t3PrXICnq1hqE6cQJyxoJM019OfdB3wHZOGcyRusChVelRWBh3d8V4MkikhqF1DOlxVGSa2b1NW_OoQJLOn16JND9betoUQZWx4Q9G_OmXmff1g9urYDfataPjJLkS_4qdoX68LBMpZ6LirMn96wsl9012LRW_xxlHrVGIbZL-8-qDvEdSWYNUZBDIYtFT0Q2X_6U4P2nxiDfgsfS3fHEkc4N_hWI1vM9x9AviZYEuf-QqMPbM4ed4Im7uJULIIn5zZ_f4ltyiRvzFWp70xhjARQcHZLpJgGOsRKtRCN_mC0]--></g></svg>

<svg xmlns="http://www.w3.org/2000/svg" width="369" height="374" viewBox="0 0 369 374"><rect width="98" height="39.789" x="7" y="167.79" fill="#3D176E" rx="2.5" ry="2.5" style="stroke:#000d19;stroke-width:.5"/><circle cx="22" cy="187.685" r="11" fill="#ADD1B2" style="stroke:#181818;stroke-width:1"/><path d="M24.969 193.325q-.578.297-1.219.438-.64.156-1.344.156-2.5 0-3.828-1.64-1.312-1.657-1.312-4.782t1.312-4.781q1.328-1.656 3.828-1.656.703 0 1.344.156.656.156 1.219.453v2.719q-.625-.578-1.219-.844-.594-.281-1.219-.281-1.343 0-2.031 1.078-.687 1.062-.687 3.156t.687 3.172q.688 1.062 2.031 1.062.625 0 1.219-.265.594-.281 1.219-.86z"/><text x="41" y="193.57" fill="#D9B8FF" font-family="Helvetica" font-size="17" textLength="56">bucket</text><rect width="223" height="39.789" x="139.5" y="167.79" fill="#3D176E" rx="2.5" ry="2.5" style="stroke:#000d19;stroke-width:.5"/><circle cx="154.5" cy="187.685" r="11" fill="#ADD1B2" style="stroke:#181818;stroke-width:1"/><path d="M157.469 193.325q-.578.297-1.219.438-.64.156-1.344.156-2.5 0-3.828-1.64-1.312-1.657-1.312-4.782t1.312-4.781q1.328-1.656 3.828-1.656.703 0 1.344.156.656.156 1.219.453v2.719q-.625-.578-1.219-.844-.594-.281-1.219-.281-1.344 0-2.031 1.078-.687 1.062-.687 3.156t.687 3.172q.688 1.062 2.031 1.062.625 0 1.219-.265.594-.281 1.219-.86z"/><text x="173.5" y="193.57" fill="#D9B8FF" font-family="Helvetica" font-size="17" textLength="181">digitalocean_resource</text><rect width="198" height="39.789" x="54" y="328.58" fill="#3D176E" rx="2.5" ry="2.5" style="stroke:#000d19;stroke-width:.5"/><circle cx="69" cy="348.474" r="11" fill="#ADD1B2" style="stroke:#181818;stroke-width:1"/><path d="M71.969 354.115q-.578.297-1.219.438-.64.156-1.344.156-2.5 0-3.828-1.64-1.312-1.657-1.312-4.782t1.312-4.781q1.328-1.656 3.828-1.656.703 0 1.344.156.656.156 1.219.453v2.719q-.625-.579-1.219-.844-.594-.281-1.219-.281-1.344 0-2.031 1.078-.687 1.062-.687 3.156t.687 3.172q.688 1.062 2.031 1.062.625 0 1.219-.265.594-.281 1.219-.86z"/><text x="88" y="354.36" fill="#D9B8FF" font-family="Helvetica" font-size="17" textLength="156">digitalocean_space</text><rect width="113" height="39.789" x="96.5" y="7" fill="#3D176E" rx="2.5" ry="2.5" style="stroke:#000d19;stroke-width:.5"/><circle cx="111.5" cy="26.895" r="11" fill="#ADD1B2" style="stroke:#181818;stroke-width:1"/><path d="M114.469 32.535q-.578.297-1.219.438-.64.156-1.344.156-2.5 0-3.828-1.64-1.312-1.657-1.312-4.782t1.312-4.781q1.328-1.656 3.828-1.656.703 0 1.344.156.656.156 1.219.453v2.719q-.625-.578-1.219-.844-.594-.281-1.219-.281-1.344 0-2.031 1.078-.687 1.062-.687 3.156t.687 3.172q.688 1.062 2.031 1.062.625 0 1.219-.265.594-.281 1.219-.86z"/><text x="130.5" y="32.78" fill="#D9B8FF" font-family="Helvetica" font-size="17" textLength="71">resource</text><path fill="none" d="M131.918 62.412C113.278 92.932 86.41 136.9 67.74 167.46M141.3 47.05l-14.503 12.234 10.242 6.255zm32.975 15.317c18.84 30.52 45.995 74.533 64.865 105.093M164.82 47.05l4.35 18.468 10.21-6.303zM77.082 223.202c18.64 30.52 45.508 74.488 64.178 105.048M67.7 207.84l4.261 18.489 10.242-6.255zm162.025 15.317c-18.84 30.52-45.995 74.533-64.865 105.093m74.32-120.41-14.56 12.165 10.21 6.303z" style="stroke:#ffaf37;stroke-width:2"/></svg>
